X: 2
T: Mna Na HEireann
R: barndance
M: 4/4
L: 1/8
K: Gmaj
| G-ABc | g2 a~g | fdA2 | ABc2 | BcA2 | ~A4 | G-ABc | g2 b~a || gfdA- | AABc- | cBcd- | dcBd | G2 G g- | gaba- | ag2e | de2 d || cBAg- | ga2g | fd2 e | cA2G | FG3 |]


Tune 3890	Setting 26190

